build/img/svg-sprite/preparation.svg

<svg width="75" height="75" viewBox="0 0 75 75" fill="none" xmlns="http://www.w3.org/2000/svg">
<path d="M19.9778 8.21138H33.0378C33.6918 8.21138 34.2219 7.6814 34.2219 7.0272C34.2219 6.373 33.6917 5.84302 33.0378 5.84302H19.9778C19.3237 5.84302 18.7936 6.373 18.7936 7.0272C18.7935 7.6814 19.3237 8.21138 19.9778 8.21138Z" fill="#EF8B54"/>
<path d="M19.9778 13.4377H46.0977C46.7519 13.4377 47.2819 12.9076 47.2819 12.2535C47.2819 11.5995 46.7518 11.0693 46.0977 11.0693H19.9778C19.3237 11.0693 18.7936 11.5995 18.7936 12.2535C18.7936 12.9076 19.3237 13.4377 19.9778 13.4377Z" fill="#EF8B54"/>
<path d="M19.9778 29.7194H33.0378C33.6918 29.7194 34.2219 29.1895 34.2219 28.5353C34.2219 27.8811 33.6917 27.3511 33.0378 27.3511H19.9778C19.3237 27.3511 18.7936 27.8811 18.7936 28.5353C18.7935 29.1893 19.3237 29.7194 19.9778 29.7194Z" fill="#EF8B54"/>
<path d="M19.9778 34.946H45.8102C46.4644 34.946 46.9943 34.416 46.9943 33.7618C46.9943 33.1076 46.4642 32.5776 45.8102 32.5776H19.9778C19.3237 32.5776 18.7936 33.1078 18.7936 33.7618C18.7935 34.4157 19.3237 34.946 19.9778 34.946Z" fill="#EF8B54"/>
<path d="M19.9778 51.2277H33.0378C33.6918 51.2277 34.2219 50.6978 34.2219 50.0436C34.2219 49.3894 33.6917 48.8594 33.0378 48.8594H19.9778C19.3237 48.8594 18.7936 49.3894 18.7936 50.0436C18.7935 50.6976 19.3237 51.2277 19.9778 51.2277Z" fill="#EF8B54"/>
<path d="M45.6249 54.0859H19.9778C19.3237 54.0859 18.7936 54.6159 18.7936 55.2701C18.7936 55.9242 19.3239 56.4543 19.9778 56.4543H45.625C46.2792 56.4543 46.8092 55.924 46.8092 55.2701C46.809 54.6162 46.2791 54.0859 45.6249 54.0859Z" fill="#EF8B54"/>
<path d="M69.3864 59.2996L62.5069 56.541V55.0303C64.402 54 65.8395 52.2331 66.4387 50.1177C68.7381 50.1057 70.6052 48.2323 70.6052 45.9303C70.6052 44.5467 69.9305 43.3183 68.8929 42.5553V39.4107C68.8929 33.5581 64.1314 28.7964 58.2788 28.7964H57.4929C56.6153 28.7964 55.7632 28.9054 54.9472 29.1071V22.6927C54.9472 22.0385 54.4172 21.5085 53.763 21.5085H50.2459C49.5917 21.5085 49.0617 22.0387 49.0617 22.6927C49.0617 23.3468 49.5917 23.8769 50.2459 23.8769H52.579V30.007C49.4713 31.6375 47.2666 34.7619 46.9264 38.4208H2.36836V23.8769H46.2822C46.9364 23.8769 47.4664 23.3468 47.4664 22.6927C47.4664 22.0387 46.9364 21.5085 46.2822 21.5085H1.18418C0.530127 21.5085 0 22.0387 0 22.6927V39.6049C0 40.2591 0.530273 40.7891 1.18418 40.7891H46.8787V42.5428C46.6834 42.6849 46.5009 42.8436 46.333 43.0167H1.18418C0.530127 43.0167 0 43.5467 0 44.2009V61.1131C0 61.7673 0.530273 62.2973 1.18418 62.2973H42.374C41.3733 63.6732 40.6248 65.5274 40.6248 67.9258V73.814C40.6248 74.4681 41.1549 74.9997 41.809 74.9997H46.2825C46.9367 74.9997 47.4667 74.4697 47.4667 73.8155C47.4667 73.1614 46.9367 72.6313 46.2825 72.6313H42.9932V67.9259C42.9932 63.0014 46.8686 61.588 47.0268 61.5328C47.0451 61.5266 47.0634 61.52 47.0812 61.5128L53.5638 58.9744C53.5932 59.0107 53.6244 59.0462 53.6588 59.0799L57.0593 62.3918C57.2805 62.6072 57.577 62.7276 57.8855 62.7276C57.8917 62.7276 57.8979 62.7276 57.9041 62.7275C58.2192 62.7227 58.5195 62.5921 58.738 62.3652L62.0638 58.9149L68.5342 61.5096C68.5506 61.5162 68.5742 61.5249 68.5907 61.5307C68.7557 61.5883 72.6315 63.0016 72.6315 67.9262V72.6316H62.8916H54.485H52.732H51.2609H50.0714C49.4172 72.6316 48.8873 73.1619 48.8873 73.8158C48.8873 74.47 49.4172 75 50.0714 75H51.2609H52.732H54.485H62.8916H73.8157C74.4699 75 74.9999 74.4583 74.9999 73.8042V67.9261C75 62.6257 71.3486 59.9753 69.3864 59.2996ZM66.7458 44.1421C67.5926 44.2976 68.2368 45.0397 68.2368 45.9304C68.2368 46.8212 67.5926 47.563 66.7458 47.7186V44.1421ZM49.2469 39.4108C49.247 34.8641 52.9462 31.1649 57.4931 31.1649H58.279C62.8257 31.1649 66.5247 34.8641 66.5247 39.4108V41.3447C66.5231 41.3425 66.5213 41.3406 66.52 41.3384C66.5092 41.3233 66.4982 41.3083 66.4865 41.2936C66.4752 41.2795 66.4636 41.2661 66.4516 41.2527C66.438 41.2371 66.4244 41.2218 66.4099 41.2067C66.3986 41.1952 66.3867 41.1842 66.375 41.1729C66.3589 41.1577 66.3428 41.1427 66.3258 41.1282C66.3139 41.1183 66.3016 41.109 66.2895 41.0994C66.2717 41.0855 66.2539 41.0717 66.2353 41.0588C66.2218 41.0494 66.208 41.0409 66.1941 41.0323C66.1761 41.0207 66.1579 41.0093 66.1392 40.9987C66.1228 40.9894 66.1055 40.9812 66.0886 40.9727C66.0718 40.9643 66.0549 40.9558 66.0378 40.9482C66.0171 40.939 65.9958 40.9314 65.9747 40.9234C65.9599 40.9179 65.9449 40.912 65.93 40.9072C65.9061 40.8993 65.8815 40.893 65.8572 40.8867C65.8462 40.8836 65.8355 40.8801 65.8244 40.8773C63.2474 40.2911 62.4407 36.9594 62.4337 36.9297C62.3309 36.4757 61.9718 36.1242 61.5158 36.031C61.0601 35.9371 60.5917 36.1199 60.319 36.4971C57.2033 40.8048 50.3455 40.8479 50.2507 40.8479C50.2507 40.8479 50.2504 40.8479 50.2503 40.8479C50.2487 40.8479 50.2472 40.8479 50.2459 40.8479C50.2052 40.8479 50.1647 40.8501 50.125 40.854C50.1126 40.8553 50.1006 40.8578 50.0881 40.8596C50.0612 40.8631 50.0341 40.8665 50.0077 40.8719C49.9909 40.8754 49.9745 40.8805 49.9576 40.8846C49.9365 40.8899 49.915 40.8943 49.8945 40.9009C49.8753 40.9069 49.8568 40.9146 49.8381 40.9215C49.8209 40.9278 49.8031 40.9334 49.7861 40.9404C49.7644 40.9497 49.7437 40.9604 49.7231 40.9706C49.7096 40.9772 49.696 40.9829 49.6828 40.9901C49.6614 41.0017 49.6415 41.0147 49.6208 41.0274C49.6091 41.0348 49.5968 41.0414 49.5851 41.0491C49.5661 41.062 49.548 41.0764 49.5296 41.0904C49.5177 41.0994 49.5054 41.1077 49.4938 41.1171C49.4773 41.1309 49.4618 41.1458 49.4459 41.1602C49.4338 41.1711 49.4212 41.1817 49.4096 41.1931C49.395 41.2078 49.3816 41.2234 49.3679 41.2388C49.3563 41.2516 49.3441 41.2637 49.333 41.2771C49.3207 41.292 49.3096 41.308 49.298 41.3238C49.2869 41.3386 49.2751 41.3528 49.2647 41.3682C49.2583 41.3777 49.2529 41.3878 49.2467 41.3976V39.4108H49.2469ZM49.0619 44.1338V47.7269C48.1891 47.5932 47.5178 46.8398 47.5178 45.9306C47.5176 45.0209 48.189 44.2675 49.0619 44.1338ZM53.3008 56.5338L46.2428 59.298C45.85 59.4329 45.3891 59.6485 44.9032 59.9472C44.8383 59.9362 44.7719 59.9292 44.704 59.9292H2.36836V45.3854H45.186C45.1626 45.5639 45.1494 45.7456 45.1494 45.9304C45.1494 48.2396 47.0284 50.1183 49.3378 50.1183C49.3481 50.1183 49.3584 50.1169 49.3686 50.1167C49.9677 52.2325 51.4055 53.9997 53.3008 55.0302V56.5338ZM60.1383 57.3607C60.1383 57.3622 60.1383 57.3635 60.1383 57.3648V57.4993L57.8587 59.8646L55.6692 57.7319V55.8691C56.1511 55.9589 56.647 56.0083 57.1545 56.0083H58.6532C59.1606 56.0083 59.6566 55.9592 60.1383 55.8692V57.3607ZM58.6535 53.6397H57.1548C53.9984 53.6397 51.4304 51.0717 51.4304 47.9154V43.156C53.4974 42.9779 57.8011 42.2676 60.8685 39.4275C61.496 40.6667 62.5872 42.1604 64.3774 42.8934V47.9156C64.3772 51.0719 61.8097 53.6397 58.6535 53.6397Z" fill="#EF8B54"/>
<path d="M12.098 6.90034C12.752 6.90034 13.2822 6.37036 13.2822 5.71616C13.2822 5.06196 12.7519 4.53198 12.098 4.53198H6.12495C5.4709 4.53198 4.94077 5.06196 4.94077 5.71616V13.5649C4.94077 14.2191 5.47104 14.7491 6.12495 14.7491H14.359C15.013 14.7491 15.5432 14.219 15.5432 13.5649V11.4472C15.5432 10.793 15.0129 10.263 14.359 10.263C13.7049 10.263 13.1748 10.7932 13.1748 11.4472V12.3805H7.30913V6.90034H12.098Z" fill="#EF8B54"/>
<path d="M16.6737 4.85435C16.1976 4.40582 15.4482 4.42808 14.9996 4.90401L11.0661 9.07764L9.85013 7.75313C9.40789 7.27105 8.65862 7.23941 8.17698 7.6815C7.6952 8.12388 7.66326 8.873 8.10535 9.35464L10.1822 11.6171C10.4047 11.8595 10.7179 11.9984 11.0469 12.0006C11.0495 12.0006 11.0522 12.0006 11.0547 12.0006C11.3807 12.0006 11.6926 11.8661 11.9164 11.6287L16.723 6.52838C17.1717 6.05245 17.1494 5.30274 16.6737 4.85435Z" fill="#EF8B54"/>
<path d="M12.098 28.4084C12.752 28.4084 13.2822 27.8784 13.2822 27.2242C13.2822 26.57 12.7519 26.04 12.098 26.04H6.12495C5.4709 26.04 4.94077 26.57 4.94077 27.2242V35.073C4.94077 35.7272 5.47104 36.2572 6.12495 36.2572H14.359C15.013 36.2572 15.5432 35.7272 15.5432 35.073V32.9554C15.5432 32.3012 15.0129 31.7712 14.359 31.7712C13.7049 31.7712 13.1748 32.3012 13.1748 32.9554V33.8887H7.30913V28.4083H12.098V28.4084Z" fill="#EF8B54"/>
<path d="M16.6737 26.3624C16.1976 25.9139 15.4482 25.9361 14.9996 26.4122L11.0661 30.5858L9.85013 29.2613C9.40789 28.7791 8.65862 28.7476 8.17698 29.1897C7.6952 29.6321 7.66326 30.3812 8.10535 30.8628L10.1824 33.1253C10.4049 33.3677 10.718 33.5066 11.0471 33.5088C11.0497 33.5088 11.0523 33.5088 11.0548 33.5088C11.3809 33.5088 11.6928 33.3743 11.9166 33.1369L16.7232 28.0366C17.1717 27.5606 17.1494 26.8111 16.6737 26.3624Z" fill="#EF8B54"/>
<path d="M14.359 53.2797C13.7049 53.2797 13.1748 53.8097 13.1748 54.4639V55.3971H7.30913V49.9167H12.0981C12.7522 49.9167 13.2823 49.3864 13.2823 48.7325C13.2823 48.0783 12.752 47.5483 12.0981 47.5483H6.12495C5.4709 47.5483 4.94077 48.0783 4.94077 48.7325V56.5813C4.94077 57.2355 5.47104 57.7655 6.12495 57.7655H14.359C15.013 57.7655 15.5432 57.2355 15.5432 56.5813V54.4637C15.5432 53.8097 15.0129 53.2797 14.359 53.2797Z" fill="#EF8B54"/>
<path d="M14.9996 47.9207L11.0661 52.0944L9.85013 50.7698C9.40789 50.2876 8.65862 50.2563 8.17698 50.6982C7.6952 51.1406 7.66326 51.8897 8.10535 52.3714L10.1824 54.6338C10.4049 54.8762 10.718 55.0151 11.0471 55.0173C11.0497 55.0173 11.0523 55.0173 11.0548 55.0173C11.3809 55.0173 11.6928 54.8828 11.9166 54.6454L16.7232 49.5451C17.1717 49.0692 17.1494 48.3196 16.6737 47.8711C16.1976 47.4224 15.4482 47.4446 14.9996 47.9207Z" fill="#EF8B54"/>
<path d="M1.18418 19.281H53.7631C54.4173 19.281 54.9473 18.751 54.9473 18.0968V1.18418C54.9473 0.52998 54.4173 0 53.7631 0H50.246C49.5918 0 49.0619 0.530127 49.0619 1.18418C49.0619 1.83823 49.592 2.36836 50.246 2.36836H52.579V16.9124H2.36836V2.36836H46.2822C46.9364 2.36836 47.4664 1.83823 47.4664 1.18418C47.4664 0.530127 46.9364 0 46.2823 0H1.18418C0.530273 0 0 0.530273 0 1.18418V18.0967C0 18.7507 0.530273 19.281 1.18418 19.281Z" fill="#EF8B54"/>
</svg>

<svg width="75" height="75" viewBox="0 0 75 75" fill="none" xmlns="http://www.w3.org/2000/svg"><path d="M19.978 8.211h13.06a1.184 1.184 0 100-2.368h-13.06a1.184 1.184 0 100 2.368zm0 5.227h26.12a1.184 1.184 0 100-2.369h-26.12a1.184 1.184 0 100 2.369zm0 16.282h13.06a1.184 1.184 0 100-2.369h-13.06a1.184 1.184 0 100 2.368zm0 5.226H45.81a1.184 1.184 0 100-2.368H19.978a1.184 1.184 0 100 2.368zm0 16.282h13.06a1.184 1.184 0 100-2.369h-13.06a1.184 1.184 0 100 2.369zm25.647 2.858H19.978a1.184 1.184 0 100 2.368h25.647a1.184 1.184 0 100-2.368z" fill="#EF8B54"/><path d="M69.386 59.3l-6.88-2.759v-1.51a8.127 8.127 0 003.933-4.913 4.193 4.193 0 004.166-4.188 4.184 4.184 0 00-1.712-3.375v-3.144c0-5.853-4.762-10.615-10.614-10.615h-.786c-.878 0-1.73.11-2.546.311v-6.414c0-.655-.53-1.184-1.184-1.184h-3.517a1.184 1.184 0 100 2.368h2.333v6.13c-3.108 1.63-5.312 4.755-5.653 8.414H2.368V23.877h43.914a1.184 1.184 0 100-2.368H1.184c-.654 0-1.184.53-1.184 1.184v16.912c0 .654.53 1.184 1.184 1.184H46.88v1.754c-.196.142-.378.3-.546.474H1.184C.53 43.017 0 43.547 0 44.2v16.912c0 .654.53 1.184 1.184 1.184h41.19c-1 1.376-1.75 3.23-1.75 5.629v5.888c0 .654.53 1.186 1.185 1.186h4.474a1.184 1.184 0 100-2.369h-3.29v-4.705c0-4.925 3.876-6.338 4.034-6.393l.054-.02 6.483-2.539c.03.037.06.072.095.106l3.4 3.312c.222.215.518.336.827.336h.018c.315-.005.615-.136.834-.363l3.326-3.45 6.47 2.595.057.02c.165.058 4.04 1.472 4.04 6.396v4.706H50.072a1.184 1.184 0 100 2.368h23.744A1.193 1.193 0 0075 73.804v-5.878c0-5.3-3.651-7.95-5.614-8.626zm-2.64-15.158a1.822 1.822 0 011.49 1.788c0 .891-.643 1.633-1.49 1.789v-3.577zm-17.5-4.731c.001-4.547 3.7-8.246 8.247-8.246h.786c4.547 0 8.246 3.7 8.246 8.246v1.934l-.005-.007a1.086 1.086 0 00-.11-.131l-.035-.034a1.311 1.311 0 00-.05-.045l-.035-.029a1.195 1.195 0 00-.055-.04c-.013-.01-.027-.018-.04-.027a1.134 1.134 0 00-.056-.033c-.016-.01-.033-.018-.05-.026l-.051-.025-.063-.025-.045-.016c-.024-.008-.049-.014-.073-.02l-.033-.01c-2.577-.586-3.383-3.918-3.39-3.947a1.184 1.184 0 00-2.115-.433c-3.116 4.308-9.974 4.35-10.068 4.35h-.005c-.04 0-.081.003-.121.007l-.037.006a1.026 1.026 0 00-.13.025l-.063.016-.057.02c-.017.007-.035.012-.052.02-.022.009-.042.02-.063.03-.013.006-.027.012-.04.02-.022.01-.041.024-.062.036l-.036.022-.055.041-.036.027-.048.043-.036.033-.042.046-.035.038-.035.047-.033.044-.018.03V39.41zm-.184 4.723v3.593a1.821 1.821 0 01-1.544-1.796c0-.91.671-1.663 1.544-1.797zm4.239 12.4l-7.058 2.764c-.393.135-.854.35-1.34.65a1.19 1.19 0 00-.199-.019H2.368V45.385h42.818a4.193 4.193 0 004.152 4.733l.03-.001a8.128 8.128 0 003.933 4.913v1.504zm6.837.827v.138l-2.28 2.366-2.189-2.133v-1.863c.482.09.978.14 1.486.14h1.498c.508 0 1.004-.05 1.485-.14v1.492zm-1.484-3.721h-1.5a5.73 5.73 0 01-5.724-5.725v-4.759c2.067-.178 6.371-.888 9.438-3.728.628 1.239 1.72 2.732 3.51 3.465v5.023a5.73 5.73 0 01-5.724 5.724zM12.098 6.9a1.184 1.184 0 100-2.368H6.125c-.654 0-1.184.53-1.184 1.184v7.849c0 .654.53 1.184 1.184 1.184h8.234c.654 0 1.184-.53 1.184-1.184v-2.118a1.184 1.184 0 10-2.368 0v.934H7.309V6.9h4.789z" fill="#EF8B54"/><path d="M16.674 4.854a1.184 1.184 0 00-1.674.05l-3.934 4.174L9.85 7.753a1.184 1.184 0 10-1.745 1.602l2.077 2.262c.223.242.536.381.865.384h.008c.326 0 .638-.135.861-.372l4.807-5.1a1.184 1.184 0 00-.05-1.675zm-4.576 23.554a1.184 1.184 0 100-2.368H6.125c-.654 0-1.184.53-1.184 1.184v7.849c0 .654.53 1.184 1.184 1.184h8.234c.654 0 1.184-.53 1.184-1.184v-2.118a1.184 1.184 0 10-2.368 0v.934H7.309v-5.48h4.789z" fill="#EF8B54"/><path d="M16.674 26.362a1.184 1.184 0 00-1.674.05l-3.934 4.174L9.85 29.26a1.184 1.184 0 10-1.745 1.602l2.077 2.262c.223.243.536.382.865.384h.008c.326 0 .638-.135.862-.372l4.806-5.1a1.185 1.185 0 00-.05-1.675zM14.359 53.28c-.654 0-1.184.53-1.184 1.184v.933H7.309v-5.48h4.79a1.184 1.184 0 000-2.369H6.124c-.654 0-1.184.53-1.184 1.184v7.85c0 .654.53 1.184 1.184 1.184h8.234c.654 0 1.184-.53 1.184-1.185v-2.117c0-.654-.53-1.184-1.184-1.184z" fill="#EF8B54"/><path d="M15 47.92l-3.934 4.174L9.85 50.77a1.184 1.184 0 10-1.745 1.601l2.077 2.263c.223.242.536.381.865.383h.008c.326 0 .638-.134.862-.372l4.806-5.1A1.185 1.185 0 0015 47.921zM1.184 19.281h52.58c.653 0 1.183-.53 1.183-1.184V1.184C54.947.53 54.417 0 53.763 0h-3.517a1.184 1.184 0 100 2.368h2.333v14.544H2.369V2.368h43.913a1.184 1.184 0 100-2.368H1.184C.53 0 0 .53 0 1.184v16.913c0 .654.53 1.184 1.184 1.184z" fill="#EF8B54"/></svg>
